X: 16708
T: Happy Snowman, The
R: reel
M: 4/4
K: Amajor
af|e2cA BcAF|EAcA B~F3|eAcA BABc|d2cd Bcdf|
e2cA BcAF|EAcA B~F3|EFAB ceaf|ecdB c~A3:|
ceea f2ec|BAcB A~F3|ceea f2ec|BAcB ~A3B|
ceea f2ec|d2cd BAFB|AFEF ABce|1 faed cAAB:|2 faed cAce||
aeca EAce|fdAF DFAg|aeca EAce|faed cAce|
aeca EAce|fdAF DFAF|EFAB ceaf|ecdB cAce|
aeca EAce|fdAF DFAF|EGBE GBeg|bagb abc'b|
aAgA ~f3a|eAcA BAFA|EFAB ceaf|~e3d ceaf||

